X: 21823
T: Kinnegad Slashers, The
R: jig
M: 6/8
K: Dmajor
ded dAF|GBA ABc|ded dAF|Eee e2 f|
ded dAF|GBA A ag|fef dBA|Bdd d2:|
dfa afd|cde ecA|dfa afd|faa a2 A|
dfa afd|cde eag|{a}fef dBA|Bdd d2:|
dAF dAF|ABA ABc|dAF dAF|Eee e2 f|
dAF dAF|ABA Aag|{a}fef dBA|Bdd d2:|

